svg/regular/bx-copy-alt.svg

<svg xmlns="http://www.w3.org/2000/svg" width="24" height="24"><path d="M20 2H10c-1.103 0-2 .897-2 2v4H4c-1.103 0-2 .897-2 2v10c0 1.103.897 2 2 2h10c1.103 0 2-.897 2-2v-4h4c1.103 0 2-.897 2-2V4c0-1.103-.897-2-2-2zM4 20V10h10l.002 10H4zm16-6h-4v-4c0-1.103-.897-2-2-2h-4V4h10v10z"/><path d="M6 12h6v2H6zm0 4h6v2H6z"/></svg>

<svg xmlns="http://www.w3.org/2000/svg" width="24" height="24" viewBox="0 0 24 24"><path d="M20,2H10C8.897,2,8,2.897,8,4v4H4c-1.103,0-2,0.897-2,2v10c0,1.103,0.897,2,2,2h10c1.103,0,2-0.897,2-2v-4h4 c1.103,0,2-0.897,2-2V4C22,2.897,21.103,2,20,2z M4,20V10h10l0.002,10H4z M20,14h-4v-4c0-1.103-0.897-2-2-2h-4V4h10V14z"/><path d="M6 12H12V14H6zM6 16H12V18H6z"/></svg>
